X: 10061
T: Mrs McLEAD OF RAASAY'S REEL
R: reel
B: "Edinburgh Repository of Music" v.1 p.6 #1
F: http://digital.nls.uk/special-collections-of-printed-music/pageturner.cfm?id=87776133
Z: 2015 John Chambers <jc:trillian.mit.edu>
M: C|
L: 1/8
K: G
[|\
G2g2 e>deg | B<B B>A B3A |\
G2g2 e>deg | A<A A>G A3B |\
G2g2 e>deg |
B<B B>A B3d |\
e>fed e2 de/f/ | g2d>B A3B |][|\
G<G B>G dBBe | d<BBA B3A |
G<G B>G d>BBe | A<A A>G A3B |\
G<G B>G d<BBe | D<B B>A B3d |\
e>f e>d e2 de/f/ | g2d>B A2A>B |]

%%sep 2 1 500
%%sep 1 1 500

